!!!OTL: Der wolgemute Jaeger
!!!ARE: Europa, Mitteleuropa, Deutschland
!!!SCT: A0441
!!!YEM: Copyright 1995, estate of Helmut Schaffrath.
**kern
*ICvox
*Ivox
*M4/2
*k[b-]
*F:
{2f
=1
2f
2f
1cc
=2
2g
1a
2b-
=3
0cc
=4
2r}
{2cc
2cc
2cc
=5
2a
2f
2a
2b-
=6
1cc
2a}
{2cc
=7
2cc
2g
2g
4f
4e
=8
1d
1c
=9
2r}
{2f
2f
2f
=10
2a
2f
2a
2b-
=11
1cc
2r}
{2cc
=12
2a
2g
2f
2f
=13
1cc
2cc}
{2cc
=14
2.dd
4cc
2b-
4a
4g
=15
2a
2b-
1g
=16
1.f}
==
!!!AGN: Romanze, Ballade, Lied, Jaegerlied
!! Forster III 1549 No. 72.
!!!ONB: ESAC (Essen Associative Code) Database: ALTDEU
!!!AMT: simple quadruple
!!!AIN: vox
!!!EED: Helmut Schaffrath
!!!EEV: 1.0
*-
